X: 20131
T: BIRKS OF INVERMAY
Q: "Slow"
%R: strathspey
B: "Edinburgh Repository of Music" v.2 p.13 #1
F: http://digital.nls.uk/special-collections-of-printed-music/pageturner.cfm?id=87776133
Z: 2015 John Chambers <jc:trillian.mit.edu>
M: C
L: 1/8
K: D
%%slurgraces
%%graceslurs
(d/e/f/g/) |\
a3b (a<f)e>d | (Te>d)(ef) B3d |\
A>BAF {B}A2D>E | {DE}F2A>B A2(f>g) |\
g3{c'}d' {b}af{f}ed |
{a}gf{f}ed {c}B2 Tf>e |\
(dB)(AF) (AB)(de) | {de}f2(Te>d) d2 :|\
|: (A>G) |\
(F>E)(F>A) (B>A)(B>d) | (e>d)ef B3b |
a>ba{g}f ({ef}gf){f}Ted | g>a (b/a/g/f/) {f}e2a>g |\
fabc' {e'}Hd'3b | {b}af{f}Ted {c}B2f>e |\
(dB)(AF) (AB)(de) | {de}f2Te>d d2 :|

%%sep 2 1 500
%%sep 1 1 500

